apps/symbolic/baobab-symbolic.svg

<svg height="24" viewBox="0 0 24 24" width="24" xmlns="http://www.w3.org/2000/svg"><path d="m21 11h-8v-8a8 8 0 0 1 8 8m-2 2c0 2.78-1.42 5.23-3.57 6.67l-3.85-6.67zm-8 8c-2.78 0-5.23-1.42-6.67-3.57l6.49-3.75 3.74 6.49c-1.06.53-2.28.83-3.56.83m-8-8a8 8 0 0 1 8-8v7.42l-7.17 4.14c-.53-1.06-.83-2.28-.83-3.56z" fill="#bebebe" stroke-width=".818182"/></svg>

<?xml version="1.0" encoding="UTF-8" standalone="no"?>
<svg
   xmlns:dc="http://purl.org/dc/elements/1.1/"
   xmlns:cc="http://creativecommons.org/ns#"
   xmlns:rdf="http://www.w3.org/1999/02/22-rdf-syntax-ns#"
   xmlns:svg="http://www.w3.org/2000/svg"
   xmlns="http://www.w3.org/2000/svg"
   xmlns:sodipodi="http://sodipodi.sourceforge.net/DTD/sodipodi-0.dtd"
   xmlns:inkscape="http://www.inkscape.org/namespaces/inkscape"
   version="1.1"
   width="24"
   height="24"
   viewBox="0 0 24 24"
   id="svg2"
   inkscape:version="0.92.1 r15371"
   sodipodi:docname="baobab-symbolic.svg">
  <metadata
     id="metadata10">
    <rdf:RDF>
      <cc:Work
         rdf:about="">
        <dc:format>image/svg+xml</dc:format>
        <dc:type
           rdf:resource="http://purl.org/dc/dcmitype/StillImage" />
      </cc:Work>
    </rdf:RDF>
  </metadata>
  <defs
     id="defs8" />
  <sodipodi:namedview
     pagecolor="#ffffff"
     bordercolor="#666666"
     borderopacity="1"
     objecttolerance="10"
     gridtolerance="10"
     guidetolerance="10"
     inkscape:pageopacity="0"
     inkscape:pageshadow="2"
     inkscape:window-width="640"
     inkscape:window-height="480"
     id="namedview6"
     showgrid="false"
     inkscape:zoom="25.291667"
     inkscape:cx="5.0411862"
     inkscape:cy="12"
     inkscape:current-layer="svg2" />
  <path
     d="M 21,11 H 13 V 3 a 8,8 0 0 1 8,8 m -2,2 c 0,2.78 -1.42,5.23 -3.57,6.67 L 11.58,13 H 19 m -8,8 C 8.22,21 5.77,19.58 4.33,17.43 l 6.49,-3.75 3.74,6.49 C 13.5,20.7 12.28,21 11,21 M 3,13 a 8,8 0 0 1 8,-8 v 7.42 L 3.83,16.56 C 3.3,15.5 3,14.28 3,13 Z"
     id="path4"
     style="fill:#bebebe;fill-opacity:1;stroke-width:0.81818181"
     inkscape:connector-curvature="0" />
</svg>
